X: 1
T: Louis Cyr
C:Jean-Claude Mirandette
M: C|
L: 1/8
R: reel
K: G
"G"G,3B, D2B,D|EDEF G2"G/F#"GA|"Em"BAGB "D"AGFD|"C" EDEF "D"EDB,D|
"G"G,3B, DDB,D|EDEF G2"G/F#"GA|"Am7"BAGB "Am7/C"AGFD|1 "D"EDEF "G"GEDB, :|\
	[2 "D"EDEF "G"G2GA||
[|:"G"BAGB A2GA|BAGB A2"G#dim"AB|"Am"cBAc "G/B"B2AB|"C"cABG "D"A2 GA|
"G"BAGB A2GA|BAGB AG"G/F#"FD|"Em"E2 (3[eB][eB][eB] [e2B2] "B"(3[AF][AF][AF][|1F2 E2 "Em"E2 GA:|\
	[2 F2 E2 "Em"E2 DB,||
%%text Transition: Don't play those last two eighth notes above.

